packages/icons/src/components/Icon/assets/default-solid/id.svg

<svg width="20" height="20" viewBox="0 0 20 20" fill="none" xmlns="http://www.w3.org/2000/svg">
<path fill-rule="evenodd" clip-rule="evenodd" d="M2 6.66667C2 5.19391 3.19391 4 4.66667 4H15.3333C16.8061 4 18 5.19391 18 6.66667V13.7778C18 15.2505 16.8061 16.4444 15.3333 16.4444H4.66667C3.19391 16.4444 2 15.2505 2 13.7778V6.66667ZM5.55556 8C5.55556 7.01816 6.35149 6.22222 7.33333 6.22222C8.31517 6.22222 9.11111 7.01816 9.11111 8C9.11111 8.98184 8.31517 9.77778 7.33333 9.77778C6.35149 9.77778 5.55556 8.98184 5.55556 8ZM7.33322 10.6667C5.8758 10.6667 4.62464 11.5435 4.07564 12.7956C4.00261 12.9621 4.0008 13.1513 4.07063 13.3192C4.14046 13.4872 4.27588 13.6193 4.44548 13.685C5.34212 14.0321 6.31626 14.2222 7.33322 14.2222C8.35018 14.2222 9.32432 14.0321 10.221 13.685C10.3906 13.6193 10.526 13.4872 10.5958 13.3192C10.6656 13.1513 10.6638 12.9621 10.5908 12.7956C10.0418 11.5435 8.79064 10.6667 7.33322 10.6667ZM11.7778 7.33333C11.7778 6.96514 12.0763 6.66667 12.4444 6.66667H14.6667C15.0349 6.66667 15.3333 6.96514 15.3333 7.33333C15.3333 7.70152 15.0349 8 14.6667 8H12.4444C12.0763 8 11.7778 7.70152 11.7778 7.33333ZM11.7778 13.1111C11.7778 12.7429 12.0763 12.4444 12.4444 12.4444H14.6667C15.0349 12.4444 15.3333 12.7429 15.3333 13.1111C15.3333 13.4793 15.0349 13.7778 14.6667 13.7778H12.4444C12.0763 13.7778 11.7778 13.4793 11.7778 13.1111ZM12.4444 9.55556C12.0763 9.55556 11.7778 9.85403 11.7778 10.2222C11.7778 10.5904 12.0763 10.8889 12.4444 10.8889L14.6667 10.8889C15.0349 10.8889 15.3333 10.5904 15.3333 10.2222C15.3333 9.85403 15.0349 9.55556 14.6667 9.55556H12.4444Z" fill="#727683"/>
</svg>

<svg xmlns="http://www.w3.org/2000/svg" width="20" height="20" fill="none" viewBox="0 0 20 20">
    <path d="M2 6.667A2.667 2.667 0 0 1 4.667 4h10.666A2.667 2.667 0 0 1 18 6.667v7.11a2.667 2.667 0 0 1-2.667 2.667H4.667A2.667 2.667 0 0 1 2 13.778zM5.556 8A1.778 1.778 0 1 1 9.11 8a1.778 1.778 0 0 1-3.555 0m1.777 2.667a3.56 3.56 0 0 0-3.257 2.129.667.667 0 0 0 .37.889c.896.347 1.87.537 2.887.537s1.991-.19 2.888-.537a.667.667 0 0 0 .37-.89 3.56 3.56 0 0 0-3.258-2.128m4.445-3.334c0-.368.298-.666.666-.666h2.223a.667.667 0 1 1 0 1.333h-2.223a.667.667 0 0 1-.666-.667m0 5.778c0-.368.298-.667.666-.667h2.223a.667.667 0 0 1 0 1.334h-2.223a.667.667 0 0 1-.666-.667m.666-3.555a.667.667 0 0 0 0 1.333h2.223a.667.667 0 0 0 0-1.333z" clip-rule="evenodd"/>
</svg>
